emblems/22/emblem-symbolic-link.svg

<svg version="1.1" viewBox="0 0 22 22" xmlns="http://www.w3.org/2000/svg">
  <g transform="matrix(.72727 0 0 .72727 5.1434 5.8464)">
    <rect y="4" width="22" height="14" ry="2" fill="#7f8c8d"/>
    <path d="m1.818 4a1.815 1.815 0 00-1.818 1.818v10.364c0 1.007.811 1.818 1.818 1.818h18.364a1.815 1.815 0 001.818-1.818v-10.364a1.815 1.815 0 00-1.818-1.818zm.182 1h18c.554 0 1 .446 1 1v10c0 .554-.446 1-1 1h-18c-.554 0-1-.446-1-1v-10c0-.554.446-1 1-1z" style="fill-opacity:.6;fill:#31363b"/>
    <g fill="#ffffff">
      <path d="m4 7c-.554 0-1 .446-1 1v6c0 .554.446 1 1 1h5c.554 0 1-.446 1-1v-6c0-.554-.446-1-1-1zm0 1h5v6h-5zm9-1c-.554 0-1 .446-1 1v6c0 .554.446 1 1 1h5c.554 0 1-.446 1-1v-6c0-.554-.446-1-1-1zm0 1h5v6h-5z"/>
      <rect x="8" y="9.5" width="6" height="3" ry="1"/>
    </g>
  </g>
</svg>

<?xml version="1.0" encoding="UTF-8"?>
<svg viewBox="0 0 22 22" xmlns="http://www.w3.org/2000/svg">

<rect fill="#7f8c8d" height="14" ry="2" width="22" y="4"/>
<path d="M1.818 4A1.815 1.815 0 0 0 0 5.818v10.364C0 17.189.811 18 1.818 18h18.364A1.815 1.815 0 0 0 22 16.182V5.818A1.815 1.815 0 0 0 20.182 4zM2 5h18c.554 0 1 .446 1 1v10c0 .554-.446 1-1 1H2c-.554 0-1-.446-1-1V6c0-.554.446-1 1-1z" style="fill:#31363b;fill-opacity:0.6;stroke:none" />
<g fill="#fff">
<path d="M4 7c-.554 0-1 .446-1 1v6c0 .554.446 1 1 1h5c.554 0 1-.446 1-1V8c0-.554-.446-1-1-1zm0 1h5v6H4zM13 7c-.554 0-1 .446-1 1v6c0 .554.446 1 1 1h5c.554 0 1-.446 1-1V8c0-.554-.446-1-1-1zm0 1h5v6h-5z"/>
<rect height="3" ry="1" width="6" x="8" y="9.5"/>
</g>
</svg>
